;Sliced by ideaMaker 3.3.0.2343, 2018-11-16 14:01:46 UTC-0600
;Dimension: 305.000 305.000 305.000 0.400
;Plate Shape: 0
;Extruder Offset #1: 25.000 0.000
;Filament Diameter #1: 1.750
;Filament Diameter #2: 1.750
;Filament Compensation #1: 94.00
;Filament Compensation #2: 94.00
;Filament Density #1: 1240.00
;Filament Density #2: 1240.00
;Model Gap: 0.200
M221 T0 S94.00
M140 S60.00
M104 T0 S205.00
M109 T0 S205.00
T0
M190 S60.00
G21
G90
M82
M107
G28 X0 Y0
G28 Z0
G1 Z15.0 F6000.0
G92 E0
G1 F140 E29
G1 X20 Y0 F140 E30
G92 E0
G1 F6000.0
M117 Printing...
M1001
M106 S0
;LAYER:-2
;Z:0.500
;HEIGHT:0.500
G0 F6000 X111.826 Y112.582
G0 F1500 Z0.500
;TYPE:RAFT
;WIDTH:0.800
G1 F480 X112.176 Y112.253 E0.0799
G1 X112.579 Y111.941 E0.1646
G1 X113.162 Y111.597 E0.2772
G1 X113.654 Y111.390 E0.3660
G1 X113.994 Y111.284 E0.4252
G1 X115.061 Y111.066 E0.6063
G1 X115.528 Y110.893 E0.6891
G1 X115.963 Y110.656 E0.7715
G1 X116.360 Y110.357 E0.8542
G1 X116.709 Y110.004 E0.9367
G1 X117.003 Y109.604 E1.0193
G1 X117.236 Y109.165 E1.1019
G1 X117.500 Y108.410 E1.2349
G1 X117.717 Y107.921 E1.3239
G1 X117.982 Y107.473 E1.4105
G1 X118.292 Y107.062 E1.4961
G1 X118.632 Y106.703 E1.5783
G1 X119.128 Y106.293 E1.6853
G1 X120.744 Y105.161 E2.0134
G1 X121.231 Y104.870 E2.1078
G1 X121.557 Y104.717 E2.1677
G1 X122.208 Y104.496 E2.2820
G1 X122.715 Y104.395 E2.3680
G1 X123.071 Y104.360 E2.4275
G1 X124.150 Y104.362 E2.6069
G1 X124.641 Y104.291 E2.6894
G1 X125.116 Y104.148 E2.7719
G1 X125.566 Y103.937 E2.8546
G1 X125.980 Y103.664 E2.9370
G1 X126.350 Y103.333 E3.0196
G1 X126.669 Y102.949 E3.1026
G1 X127.090 Y102.249 E3.2384
G1 X127.386 Y101.835 E3.3231
G1 X127.748 Y101.433 E3.4130
G1 X128.131 Y101.095 E3.4980
G1 X128.542 Y100.808 E3.5814
G1 X129.128 Y100.497 E3.6917
G1 X130.846 Y99.754 E4.0030
G1 X131.310 Y99.582 E4.0853
G1 X131.816 Y99.452 E4.1721
G1 X132.487 Y99.368 E4.2846
G1 X133.009 Y99.372 E4.3714
G1 X133.371 Y99.409 E4.4319
G1 X134.435 Y99.631 E4.6127
G1 X134.933 Y99.656 E4.6956
G1 X135.427 Y99.610 E4.7781
G1 X135.909 Y99.491 E4.8607
G1 X136.368 Y99.303 E4.9432
G1 X136.796 Y99.052 E5.0257
G1 X137.183 Y98.739 E5.1084
G1 X137.703 Y98.170 E5.2366
G1 X138.076 Y97.821 E5.3216
G1 X138.498 Y97.507 E5.4091
G1 X138.943 Y97.249 E5.4946
G1 X139.405 Y97.044 E5.5787
G1 X140.082 Y96.844 E5.6960
G1 X141.899 Y96.467 E6.0047
G1 X142.379 Y96.392 E6.0854
G1 X142.899 Y96.365 E6.1720
G1 X143.589 Y96.419 E6.2871
G1 X143.947 Y96.488 E6.3478
G1 X144.460 Y96.643 E6.4369
G1 X145.447 Y97.069 E6.6157
G1 X145.929 Y97.194 E6.6985
G1 X146.424 Y97.246 E6.7812
G1 X146.919 Y97.227 E6.8636
G1 X147.408 Y97.135 E6.9464
G1 X147.877 Y96.973 E7.0289
G1 X148.318 Y96.745 E7.1114
G1 X148.943 Y96.293 E7.2397
G1 X149.382 Y96.027 E7.3251
G1 X149.862 Y95.803 E7.4132
G1 X150.351 Y95.641 E7.4988
G1 X150.856 Y95.536 E7.5846
G1 X151.524 Y95.480 E7.6961
G1 X153.500 Y95.480 E8.0247
G1 X153.871 Y95.501 E8.0865
G1 X154.402 Y95.582 E8.1758
G1 X155.063 Y95.775 E8.2903
G1 X155.534 Y95.982 E8.3759
G1 X155.835 Y96.150 E8.4332
G1 X156.722 Y96.770 E8.6132
G1 X157.165 Y96.993 E8.6957
G1 X157.637 Y97.148 E8.7783
G1 X158.127 Y97.233 E8.8610
G1 X158.622 Y97.246 E8.9433
G1 X159.115 Y97.186 E9.0259
G1 X159.596 Y97.054 E9.1089
G1 X160.320 Y96.730 E9.2408
G1 X160.817 Y96.553 E9.3285
G1 X161.328 Y96.432 E9.4159
G1 X161.838 Y96.373 E9.5012
G1 X162.354 Y96.371 E9.5871
G1 X163.008 Y96.451 E9.6966
G1 X164.921 Y96.843 E10.0214
G1 X165.323 Y96.950 E10.0905
G1 X165.799 Y97.128 E10.1751
G1 X166.425 Y97.458 E10.2927
G1 X166.708 Y97.651 E10.3497
G1 X167.120 Y97.995 E10.4390
G1 X167.857 Y98.778 E10.6178
G1 X168.250 Y99.084 E10.7006
G1 X168.682 Y99.328 E10.7831
G1 X169.145 Y99.508 E10.8657
G1 X169.629 Y99.618 E10.9483
G1 X170.124 Y99.656 E11.0308
G1 X170.620 Y99.622 E11.1135
G1 X171.370 Y99.455 E11.2413
G1 X171.889 Y99.380 E11.3285
G1 X172.410 Y99.365 E11.4152
G1 X172.946 Y99.410 E11.5046
G1 X173.431 Y99.508 E11.5869
G1 X174.060 Y99.718 E11.6972
G1 X175.794 Y100.460 E12.0109
G1 X176.223 Y100.671 E12.0904
G1 X176.689 Y100.961 E12.1816
G1 X177.201 Y101.384 E12.2921
G1 X177.561 Y101.771 E12.3800
G1 X177.774 Y102.046 E12.4378
G1 X178.343 Y102.969 E12.6182
G1 X178.665 Y103.350 E12.7011
G1 X179.038 Y103.677 E12.7836
G1 X179.453 Y103.948 E12.8660
G1 X179.905 Y104.156 E12.9488
G1 X180.381 Y104.294 E13.0312
G1 X180.874 Y104.363 E13.1140
G1 X181.665 Y104.350 E13.2455
G1 X182.183 Y104.382 E13.3318
G1 X182.707 Y104.475 E13.4204
G1 X183.201 Y104.621 E13.5060
G1 X183.668 Y104.820 E13.5904
G1 X184.257 Y105.163 E13.7038
G1 X185.860 Y106.281 E14.0288
G1 X186.291 Y106.631 E14.1211
G1 X186.558 Y106.895 E14.1836
G1 X186.974 Y107.410 E14.2937
G1 X187.248 Y107.856 E14.3807
G1 X187.409 Y108.187 E14.4419
G1 X187.790 Y109.224 E14.6257
G1 X188.033 Y109.660 E14.7087
G1 X188.334 Y110.053 E14.7910
G1 X188.690 Y110.400 E14.8737
G1 X189.093 Y110.691 E14.9563
G1 X189.534 Y110.919 E15.0389
G1 X190.002 Y111.082 E15.1213
G1 X190.749 Y111.223 E15.2477
G1 X191.253 Y111.358 E15.3345
G1 X191.748 Y111.554 E15.4230
G1 X192.198 Y111.794 E15.5078
G1 X192.623 Y112.088 E15.5938
G1 X193.114 Y112.525 E15.7031
G1 X194.417 Y113.893 E16.0173
G1 X194.742 Y114.273 E16.1004
G1 X195.037 Y114.700 E16.1867
G1 X195.345 Y115.300 E16.2989
G1 X195.520 Y115.782 E16.3842
G1 X195.610 Y116.134 E16.4446
G1 X195.770 Y117.210 E16.6255
G1 X195.915 Y117.686 E16.7082
G1 X196.128 Y118.134 E16.7907
G1 X196.405 Y118.547 E16.8734
G1 X196.737 Y118.915 E16.9559
G1 X197.121 Y119.231 E17.0386
G1 X197.564 Y119.497 E17.1245
G1 X198.275 Y119.788 E17.2523
G1 X198.760 Y120.032 E17.3425
G1 X199.187 Y120.314 E17.4276
G1 X199.588 Y120.647 E17.5143
G1 X199.934 Y121.010 E17.5977
G1 X200.337 Y121.550 E17.7098
G1 X201.328 Y123.138 E18.0211
G1 X201.567 Y123.573 E18.1036
G1 X201.771 Y124.050 E18.1899
G1 X201.956 Y124.706 E18.3032
G1 X202.030 Y125.216 E18.3889
G1 X202.047 Y125.585 E18.4504
G1 X201.987 Y126.667 E18.6306
G1 X202.035 Y127.162 E18.7133
G1 X202.153 Y127.645 E18.7960
G1 X202.341 Y128.105 E18.8786
G1 X202.594 Y128.532 E18.9612
G1 X202.905 Y128.917 E19.0435
G1 X203.271 Y129.255 E19.1263
G1 X203.935 Y129.702 E19.2594
G1 X204.347 Y130.029 E19.3469
G1 X204.717 Y130.399 E19.4339
G1 X205.039 Y130.803 E19.5198
G1 X205.309 Y131.234 E19.6044
G1 X205.590 Y131.837 E19.7150
G1 X206.234 Y133.568 E20.0222
G1 X206.391 Y134.067 E20.1092
G1 X206.495 Y134.578 E20.1959
G1 X206.542 Y135.258 E20.3093
G1 X206.513 Y135.772 E20.3949
G1 X206.460 Y136.111 E20.4519
G1 X206.179 Y137.178 E20.6354
G1 X206.125 Y137.673 E20.7182
G1 X206.143 Y138.169 E20.8008
G1 X206.235 Y138.657 E20.8834
G1 X206.396 Y139.126 E20.9658
G1 X206.623 Y139.567 E21.0483
G1 X206.913 Y139.972 E21.1311
G1 X207.567 Y140.645 E21.2872
G1 X207.803 Y140.934 E21.3492
G1 X208.094 Y141.370 E21.4364
G1 X208.337 Y141.844 E21.5250
G1 X208.512 Y142.311 E21.6079
G1 X208.666 Y142.950 E21.7172
G1 X208.966 Y144.892 E22.0440
G1 X209.013 Y145.478 E22.1418
G1 X209.005 Y145.845 E22.2028
G1 X208.916 Y146.515 E22.3152
G1 X208.781 Y147.018 E22.4019
G1 X208.659 Y147.342 E22.4594
G1 X208.174 Y148.323 E22.6414
G1 X208.022 Y148.796 E22.7240
G1 X207.941 Y149.287 E22.8068
G1 X207.933 Y149.783 E22.8893
G1 X207.995 Y150.275 E22.9718
G1 X208.130 Y150.754 E23.0545
G1 X208.333 Y151.208 E23.1372
G1 X208.762 Y151.872 E23.2687
G1 X209.013 Y152.332 E23.3558
G1 X209.210 Y152.818 E23.4430
G1 X209.349 Y153.319 E23.5295
G1 X209.431 Y153.826 E23.6149
G1 X209.452 Y154.512 E23.7291
G1 X209.360 Y156.376 E24.0394
G1 X209.311 Y156.860 E24.1203
G1 X209.208 Y157.363 E24.2057
G1 X208.978 Y158.029 E24.3229
G1 X208.755 Y158.474 E24.4057
G1 X208.563 Y158.779 E24.4656
G1 X207.891 Y159.643 E24.6476
G1 X207.647 Y160.076 E24.7303
G1 X207.469 Y160.540 E24.8129
G1 X207.360 Y161.024 E24.8954
G1 X207.324 Y161.520 E24.9781
G1 X207.360 Y162.015 E25.0607
G1 X207.467 Y162.500 E25.1433
G1 X207.764 Y163.261 E25.2791
G1 X207.913 Y163.759 E25.3656
G1 X208.007 Y164.281 E25.4538
G1 X208.039 Y164.789 E25.5384
G1 X208.014 Y165.306 E25.6245
G1 X207.902 Y165.953 E25.7337
G1 X207.437 Y167.767 E26.0451
G1 X207.292 Y168.224 E26.1248
G1 X207.080 Y168.718 E26.2142
G1 X206.740 Y169.294 E26.3255
G1 X206.414 Y169.708 E26.4131
G1 X206.155 Y169.980 E26.4756
G1 X205.334 Y170.679 E26.6549
G1 X205.009 Y171.056 E26.7377
G1 X204.744 Y171.475 E26.8201
G1 X204.541 Y171.929 E26.9028
G1 X204.407 Y172.407 E26.9854
G1 X204.343 Y172.899 E27.0679
G1 X204.354 Y173.397 E27.1507
G1 X204.488 Y174.185 E27.2836
G1 X204.535 Y174.699 E27.3695
G1 X204.522 Y175.236 E27.4588
G1 X204.452 Y175.744 E27.5441
G1 X204.323 Y176.249 E27.6308
G1 X204.087 Y176.850 E27.7381
G1 X203.266 Y178.536 E28.0500
G1 X203.025 Y178.968 E28.1323
G1 X202.732 Y179.392 E28.2180
G1 X202.274 Y179.897 E28.3313
G1 X202.002 Y180.136 E28.3916
G1 X201.582 Y180.439 E28.4777
G1 X200.629 Y180.964 E28.6586
G1 X200.235 Y181.266 E28.7412
G1 X199.890 Y181.622 E28.8236
G1 X199.598 Y182.025 E28.9064
G1 X199.370 Y182.466 E28.9889
G1 X199.208 Y182.934 E29.0713
G1 X199.115 Y183.424 E29.1542
G1 X199.087 Y184.251 E29.2919
G1 X199.030 Y184.746 E29.3747
G1 X198.910 Y185.267 E29.4636
G1 X198.737 Y185.754 E29.5496
G1 X198.510 Y186.221 E29.6359
G1 X198.165 Y186.751 E29.7411
G1 X197.015 Y188.245 E30.0546
G1 X196.687 Y188.627 E30.1384
G1 X196.317 Y188.979 E30.2233
G1 X195.767 Y189.380 E30.3365
G1 X195.298 Y189.636 E30.4253
G1 X194.982 Y189.771 E30.4825
G1 X193.943 Y190.094 E30.6634
G1 X193.496 Y190.312 E30.7461
G1 X193.086 Y190.591 E30.8286
G1 X192.722 Y190.928 E30.9111
G1 X192.409 Y191.313 E30.9936
G1 X192.156 Y191.741 E31.0763
G1 X191.968 Y192.202 E31.1591
G1 X191.778 Y192.990 E31.2939
G1 X191.618 Y193.479 E31.3795
G1 X191.320 Y194.101 E31.4942
G1 X191.034 Y194.538 E31.5810
G1 X190.823 Y194.804 E31.6375
G1 X190.300 Y195.329 E31.7607
G1 X188.865 Y196.560 E32.0751
G1 X188.424 Y196.887 E32.1664
G1 X187.965 Y197.153 E32.2547
G1 X187.486 Y197.360 E32.3414
G1 X186.998 Y197.510 E32.4263
G1 X186.474 Y197.608 E32.5150
G1 X185.561 Y197.691 E32.6674
G1 X185.077 Y197.815 E32.7505
G1 X184.620 Y198.006 E32.8329
G1 X184.194 Y198.262 E32.9156
G1 X183.811 Y198.578 E32.9981
G1 X183.478 Y198.946 E33.0807
G1 X183.202 Y199.360 E33.1634
G1 X182.862 Y200.086 E33.2967
G1 X182.600 Y200.543 E33.3843
G1 X182.197 Y201.074 E33.4952
G1 X181.831 Y201.446 E33.5820
G1 X181.567 Y201.665 E33.6390
G1 X180.938 Y202.082 E33.7645
G1 X179.317 Y202.983 E34.0729
G1 X178.791 Y203.229 E34.1695
G1 X178.309 Y203.390 E34.2540
G1 X177.774 Y203.503 E34.3449
G1 X177.272 Y203.551 E34.4288
G1 X176.733 Y203.541 E34.5185
G1 X175.827 Y203.439 E34.6701
G1 X175.328 Y203.463 E34.7532
G1 X174.841 Y203.558 E34.8357
G1 X174.373 Y203.724 E34.9183
G1 X173.934 Y203.956 E35.0008
G1 X173.534 Y204.249 E35.0833
G1 X173.180 Y204.598 E35.1660
G1 X172.607 Y205.356 E35.3240
G1 X172.358 Y205.629 E35.3854
G1 X171.847 Y206.076 E35.4983
G1 X171.425 Y206.359 E35.5828
G1 X171.110 Y206.528 E35.6423
G1 X170.435 Y206.801 E35.7634
G1 X168.641 Y207.363 E36.0760
G1 X168.071 Y207.499 E36.1735
G1 X167.553 Y207.560 E36.2602
G1 X167.051 Y207.563 E36.3437
G1 X166.508 Y207.504 E36.4345
G1 X166.012 Y207.392 E36.5191
G1 X165.149 Y207.108 E36.6702
G1 X164.656 Y207.029 E36.7532
G1 X164.160 Y207.023 E36.8357
G1 X163.668 Y207.089 E36.9182
G1 X163.191 Y207.225 E37.0007
G1 X162.738 Y207.431 E37.0835
G1 X162.321 Y207.700 E37.1660
G1 X161.599 Y208.331 E37.3255
G1 X161.316 Y208.538 E37.3838
G1 X160.711 Y208.882 E37.4995
G1 X160.219 Y209.082 E37.5878
G1 X159.907 Y209.175 E37.6420
G1 X159.153 Y209.312 E37.7694
G1 X157.314 Y209.498 E38.0768
G1 X156.725 Y209.516 E38.1748
G1 X156.197 Y209.470 E38.2629
G1 X155.702 Y209.370 E38.3469
G1 X155.186 Y209.203 E38.4371
G1 X154.721 Y208.992 E38.5220
G1 X153.914 Y208.534 E38.6764
G1 X153.446 Y208.361 E38.7593
G1 X152.960 Y208.258 E38.8419
G1 X152.464 Y208.227 E38.9246
G1 X151.970 Y208.269 E39.0070
G1 X151.487 Y208.382 E39.0895
G1 X151.025 Y208.564 E39.1721
G1 X150.362 Y208.948 E39.2995
G1 X149.889 Y209.174 E39.3867
G1 X149.399 Y209.343 E39.4729
G1 X148.731 Y209.480 E39.5863
G1 X148.204 Y209.516 E39.6741
G1 X147.724 Y209.499 E39.7540
G1 X145.764 Y209.302 E40.0816
G1 X145.200 Y209.202 E40.1769
G1 X144.700 Y209.054 E40.2636
G1 X144.219 Y208.849 E40.3505
G1 X143.776 Y208.599 E40.4351
G1 X143.346 Y208.286 E40.5236
G1 X142.658 Y207.682 E40.6758
G1 X142.237 Y207.415 E40.7587
G1 X141.782 Y207.214 E40.8415
G1 X141.303 Y207.083 E40.9240
G1 X140.811 Y207.021 E41.0065
G1 X140.315 Y207.033 E41.0890
G1 X139.824 Y207.116 E41.1718
G1 X139.107 Y207.356 E41.2976
G1 X138.596 Y207.485 E41.3852
G1 X137.924 Y207.564 E41.4977
G1 X137.564 Y207.566 E41.5576
G1 X137.060 Y207.519 E41.6418
G1 X136.269 Y207.337 E41.7768
G1 X134.504 Y206.779 E42.0846
G1 X133.975 Y206.569 E42.1793
G1 X133.519 Y206.324 E42.2653
G1 X133.088 Y206.026 E42.3525
G1 X132.695 Y205.682 E42.4393
G1 X132.352 Y205.305 E42.5241
G1 X131.800 Y204.572 E42.6767
G1 X131.441 Y204.226 E42.7596
G1 X131.037 Y203.937 E42.8422
G1 X130.596 Y203.710 E42.9247
G1 X130.125 Y203.550 E43.0074
G1 X129.638 Y203.459 E43.0898
G1 X129.140 Y203.441 E43.1727
G1 X128.372 Y203.531 E43.3013
G1 X127.823 Y203.553 E43.3927
G1 X127.156 Y203.492 E43.5040
G1 X126.650 Y203.380 E43.5902
G1 X126.328 Y203.274 E43.6466
G1 X125.616 Y202.948 E43.7768
G1 X123.991 Y202.040 E44.0864
G1 X123.512 Y201.726 E44.1816
G1 X123.127 Y201.406 E44.2649
G1 X122.756 Y201.018 E44.3542
G1 X122.446 Y200.613 E44.4390
G1 X122.169 Y200.145 E44.5294
G1 X121.771 Y199.311 E44.6831
G1 X121.486 Y198.901 E44.7661
G1 X121.145 Y198.539 E44.8489
G1 X120.757 Y198.231 E44.9312
G1 X120.327 Y197.981 E45.0140
G1 X119.867 Y197.798 E45.0963
G1 X119.382 Y197.683 E45.1792
G1 X118.625 Y197.618 E45.3055
G1 X118.101 Y197.533 E45.3938
G1 X117.448 Y197.336 E45.5072
G1 X116.976 Y197.123 E45.5934
G1 X116.681 Y196.955 E45.6498
G1 X116.046 Y196.488 E45.7809
G1 X114.643 Y195.277 E46.0891
G1 X114.241 Y194.877 E46.1834
G1 X113.913 Y194.465 E46.2710
G1 X113.636 Y194.025 E46.3575
G1 X113.411 Y193.553 E46.4444
G1 X113.242 Y193.062 E46.5308
G1 X113.023 Y192.168 E46.6838
G1 X112.828 Y191.707 E46.7671
G1 X112.571 Y191.283 E46.8495
G1 X112.254 Y190.901 E46.9321
G1 X111.885 Y190.569 E47.0146
G1 X111.472 Y190.294 E47.0971
G1 X111.022 Y190.082 E47.1799
G1 X110.258 Y189.856 E47.3124
G1 X109.773 Y189.670 E47.3987
G1 X109.314 Y189.430 E47.4849
G1 X108.760 Y189.044 E47.5972
G1 X108.373 Y188.687 E47.6847
G1 X107.981 Y188.241 E47.7835
G1 X106.840 Y186.760 E48.0944
G1 X106.526 Y186.286 E48.1889
G1 X106.297 Y185.835 E48.2731
G1 X106.111 Y185.337 E48.3615
G1 X105.987 Y184.839 E48.4468
G1 X105.917 Y184.309 E48.5357
G1 X105.879 Y183.379 E48.6905
G1 X105.780 Y182.890 E48.7735
G1 X105.611 Y182.423 E48.8561
G1 X105.376 Y181.985 E48.9387
G1 X105.079 Y181.587 E49.0213
G1 X104.729 Y181.235 E49.1039
G1 X104.331 Y180.940 E49.1862
G1 X103.505 Y180.491 E49.3426
G1 X103.198 Y180.288 E49.4038
G1 X102.685 Y179.857 E49.5152
G1 X102.337 Y179.478 E49.6008
G1 X102.020 Y179.040 E49.6907
G1 X101.726 Y178.520 E49.7901
G1 X100.932 Y176.896 E50.0907
G1 X100.755 Y176.474 E50.1668
G1 X100.563 Y175.817 E50.2806
G1 X100.483 Y175.308 E50.3663
G1 X100.462 Y174.957 E50.4248
G1 X100.482 Y174.437 E50.5113
G1 X100.652 Y173.354 E50.6936
G1 X100.654 Y172.857 E50.7763
G1 X100.585 Y172.366 E50.8587
G1 X100.444 Y171.890 E50.9413
G1 X100.236 Y171.439 E51.0239
G1 X99.965 Y171.024 E51.1063
G1 X99.634 Y170.651 E51.1892
G1 X99.021 Y170.141 E51.3218
G1 X98.662 Y169.793 E51.4050
G1 X98.326 Y169.386 E51.4928
G1 X98.036 Y168.939 E51.5814
G1 X97.818 Y168.501 E51.6627
G1 X97.595 Y167.868 E51.7743
G1 X97.104 Y165.987 E52.0976
G1 X96.996 Y165.395 E52.1977
G1 X96.966 Y165.028 E52.2590
G1 X96.986 Y164.344 E52.3727
G1 X97.036 Y164.003 E52.4301
G1 X97.163 Y163.480 E52.5196
G1 X97.543 Y162.468 E52.6993
G1 X97.645 Y161.981 E52.7821
G1 X97.676 Y161.485 E52.8647
G1 X97.634 Y160.991 E52.9472
G1 X97.521 Y160.507 E53.0298
G1 X97.337 Y160.045 E53.1125
G1 X97.090 Y159.616 E53.1949
G1 X96.490 Y158.855 E53.3560
G1 X96.212 Y158.412 E53.4430
G1 X95.986 Y157.941 E53.5299
G1 X95.814 Y157.445 E53.6172
G1 X95.703 Y156.943 E53.7027
G1 X95.637 Y156.361 E53.8001
G1 X95.548 Y154.591 E54.0948
G1 X95.549 Y154.087 E54.1786
G1 X95.627 Y153.430 E54.2886
G1 X95.761 Y152.905 E54.3788
G1 X95.939 Y152.435 E54.4623
